Newaita-dark/apps/64/lookbook.svg

<svg height="64pt" viewBox="0 0 64 64" width="64pt" xmlns="http://www.w3.org/2000/svg" xmlns:xlink="http://www.w3.org/1999/xlink"><linearGradient id="a" gradientUnits="userSpaceOnUse" x1="31.75304" x2="31.75304" y1="56.067872" y2="58.71396000006"><stop offset="0" stop-opacity=".27451"/><stop offset="1" stop-opacity="0"/></linearGradient><linearGradient id="b"><stop offset="0" stop-opacity=".313726"/><stop offset=".222222" stop-opacity=".27451"/><stop offset="1" stop-opacity="0"/></linearGradient><radialGradient id="c" cx="450.908936" cy="189.579361" gradientTransform="matrix(.00000035 -.156265 -.281277 -.0000002 100.292171 127.190665)" gradientUnits="userSpaceOnUse" r="21.166656" xlink:href="#b"/><radialGradient id="d" cx="450.908936" cy="189.579361" gradientTransform="matrix(-.00000035 .156265 .281277 .0000002 -36.786098 -15.054961)" gradientUnits="userSpaceOnUse" r="21.166656" xlink:href="#b"/><radialGradient id="e" cx="450.908936" cy="189.579361" gradientTransform="matrix(-.00000035 -.156265 .281277 -.0000002 -36.786098 127.190665)" gradientUnits="userSpaceOnUse" r="21.166656" xlink:href="#b"/><radialGradient id="f" cx="450.908936" cy="189.579361" gradientTransform="matrix(.00000035 .156265 -.281277 .0000002 100.292167 -15.054959)" gradientUnits="userSpaceOnUse" r="21.166656" xlink:href="#b"/><linearGradient id="g" gradientTransform="matrix(.150699 0 0 .434824 -11.708026 67.282696)" gradientUnits="userSpaceOnUse" x1="306.916656" x2="305.954559" y1="-25.791676" y2="-141.414581"><stop offset="0" stop-color="#5c6bc0"/><stop offset="1" stop-color="#64b5f6"/></linearGradient><linearGradient id="h" gradientTransform="matrix(4.556143 0 0 13.146184 -353.972656 2034.180176)" gradientUnits="userSpaceOnUse" x1="165.484848" x2="165.484848" y1="-25.791672" y2="-141.414581"><stop offset="0" stop-color="#424242"/><stop offset="1" stop-color="#616161"/></linearGradient><path d="m15.875 56.066406h31.753906v2.648438h-31.753906zm0 0" fill="url(#a)"/><path d="m47.628906 56.066406h5.292969v-2.644531h-5.292969zm0 0" fill="url(#c)"/><path d="m15.875 56.066406h-5.289062v2.648438h5.289062zm0 0" fill="url(#d)"/><path d="m15.875 56.066406h-5.289062v-2.644531h5.289062zm0 0" fill="url(#e)"/><path d="m47.628906 56.066406h5.292969v2.648438h-5.292969zm0 0" fill="url(#f)"/><path d="m13.230469 5.792969h37.046875c1.460937 0 2.644531 1.183593 2.644531 2.644531v44.984375c0 1.460937-1.183594 2.644531-2.644531 2.644531h-37.046875c-1.460938 0-2.644531-1.183594-2.644531-2.644531v-44.984375c0-1.460938 1.183593-2.644531 2.644531-2.644531zm0 0" fill="url(#g)"/><path d="m400.001193 175.140764c-44.287112 0-79.952999 35.665888-79.952999 79.952999v1360.027676c0 44.287112 35.665887 79.952999 79.952999 79.952999h119.988548v-1519.933674zm0 0" fill="url(#h)" stroke="#212121" stroke-linecap="round" stroke-width="11.338583" transform="scale(.0330761)"/><path d="m13.230469 56.066406c-1.464844 0-2.644531-1.179687-2.644531-2.644531v-.332031c0 1.46875 1.179687 2.648437 2.644531 2.648437h37.046875c1.464844 0 2.644531-1.179687 2.644531-2.648437v.332031c0 1.464844-1.179687 2.644531-2.644531 2.644531zm0 0" fill-opacity=".196078"/><path d="m13.230469 5.792969c-1.464844 0-2.644531 1.179687-2.644531 2.644531v.332031c0-1.464843 1.179687-2.648437 2.644531-2.648437h37.046875c1.464844 0 2.644531 1.183594 2.644531 2.648437v-.332031c0-1.464844-1.179687-2.644531-2.644531-2.644531zm0 0" fill="#e6e6e6" fill-opacity=".937239"/><path d="m13.230469 5.605469c-1.566407 0-2.832031 1.265625-2.832031 2.832031v44.984375c0 1.566406 1.265624 2.832031 2.832031 2.832031h37.046875c1.566406 0 2.832031-1.265625 2.832031-2.832031v-44.984375c0-1.566406-1.265625-2.832031-2.832031-2.832031zm0 .375h37.046875c1.363281 0 2.457031 1.09375 2.457031 2.457031v44.984375c0 1.367187-1.09375 2.457031-2.457031 2.457031h-37.046875c-1.367188 0-2.457031-1.089844-2.457031-2.457031v-44.984375c0-1.363281 1.089843-2.457031 2.457031-2.457031zm0 0" fill="#212121"/><path d="m32.59375 17.628906c-2.367188 0-4.734375.90625-6.546875 2.722656-3.628906 3.628907-3.628906 9.46875 0 13.097657 3.308594 3.308593 8.464844 3.597656 12.097656.867187.019531.023438.039063.046875.0625.066406l.9375.9375c-.519531.515626-.519531 1.351563 0 1.871094l3.742188 3.742188c.515625.515625 1.351562.515625 1.871093 0l1.871094-1.871094c.515625-.519531.515625-1.355469 0-1.871094l-3.742187-3.742187c-.519531-.519531-1.355469-.519531-1.871094 0l-.9375-.9375c-.023437-.019531-.042969-.042969-.066406-.0625 2.730469-3.632813 2.441406-8.789063-.867188-12.097657-1.816406-1.816406-4.183593-2.722656-6.550781-2.722656zm-.179688 2.714844c3.664063 0 6.617188 2.953125 6.617188 6.617188 0 3.664062-2.953125 6.613281-6.617188 6.613281-3.664062 0-6.613281-2.949219-6.613281-6.613281 0-3.664063 2.949219-6.617188 6.613281-6.617188zm0 0" fill="#e0e0e0"/><path d="m32.59375 17.628906c-2.367188 0-4.734375.90625-6.546875 2.722656-1.929687 1.925782-2.832031 4.480469-2.710937 6.996094.105468-2.214844 1.011718-4.402344 2.710937-6.101562 1.8125-1.8125 4.179687-2.71875 6.546875-2.71875s4.734375.90625 6.550781 2.71875c1.699219 1.699218 2.601563 3.882812 2.707031 6.101562.121094-2.515625-.78125-5.070312-2.707031-6.996094-1.816406-1.816406-4.183593-2.722656-6.550781-2.722656zm-6.777344 9.78125c-.011718.148438-.015625.296875-.015625.449219 0 3.664063 2.949219 6.613281 6.613281 6.613281 3.664063 0 6.617188-2.949218 6.617188-6.613281 0-.152344-.007812-.300781-.015625-.449219-.230469 3.453125-3.085937 6.164063-6.601563 6.164063-3.511718 0-6.371093-2.710938-6.597656-6.164063zm14.566406 5.40625c-.117187.179688-.242187.355469-.371093.53125.023437.019532.042969.039063.066406.0625l.9375.933594c.515625-.515625 1.351563-.515625 1.871094 0l3.742187 3.742188c.140625.144531.246094.3125.308594.488281.167969-.46875.066406-1.007813-.308594-1.382813l-3.742187-3.742187c-.519531-.519531-1.355469-.519531-1.871094 0zm-1.574218 3.066406c-.078125.265626-.070313.554688.023437.820313.066407-.175781.167969-.34375.3125-.488281zm0 0" fill="#fff" fill-opacity=".588235"/><path d="m32.414062 20.507812c-3.414062 0-6.207031 2.5625-6.574218 5.871094-.015625-.136718-.023438-.277344-.03125-.417968-.007813.109374-.007813.222656-.007813.335937 0 .253906.011719.5.039063.746094.367187-3.3125 3.160156-5.871094 6.574218-5.871094 3.414063 0 6.207032 2.558594 6.574219 5.871094.027344-.246094.042969-.492188.042969-.746094 0-.113281-.003906-.226563-.011719-.335937-.003906.140624-.015625.28125-.03125.417968-.367187-3.308594-3.160156-5.871094-6.574219-5.871094zm-9.082031 6.886719c-.089843 2.476563.816407 4.980469 2.714844 6.878907 3.308594 3.3125 8.464844 3.597656 12.097656.867187.019531.023437.039063.046875.0625.066406l.558594.5625c-.050781-.394531.074219-.808593.378906-1.113281l-.273437-.269531c-.101563.226562-.136719.476562-.105469.71875l-.558594-.558594c-.023437-.023437-.042969-.042969-.0625-.066406-3.632812 2.730469-8.789062 2.441406-12.097656-.867188-1.730469-1.730469-2.632813-3.964843-2.714844-6.21875zm18.523438 0c-.050781 1.496094-.46875 2.984375-1.25 4.320313l-.316407-.316406c-.089843.128906-.183593.257812-.277343.386718.023437.019532.042969.042969.066406.0625l.527344.53125c.894531-1.535156 1.3125-3.265625 1.25-4.984375zm-3.058594 9.355469c-.113281.4375.003906.921875.347656 1.265625l3.742188 3.742187c.515625.519532 1.351562.519532 1.871093 0l1.871094-1.871093c.34375-.34375.457032-.828125.34375-1.265625-.054687.21875-.171875.429687-.34375.605468l-1.871094 1.871094c-.519531.515625-1.355468.515625-1.871093 0l-3.742188-3.742187c-.175781-.175781-.289062-.386719-.347656-.605469zm0 0" fill-opacity=".235294"/><path d="m985.41776 532.980627c-71.567972 0-143.135945 27.39896-197.933864 82.314978-109.713938 109.713938-109.713938 286.27189 0 395.985828 100.029823 100.029823 255.920456 108.769147 365.752493 26.21797.590495.708594 1.180989 1.417188 1.889583 2.007683l28.343752 28.343751c-15.707163 15.589064-15.707163 40.862242 0 56.569404l113.138808 113.138808c15.589063 15.589064 40.862241 15.589064 56.569404 0l56.569404-56.569404c15.589063-15.707162 15.589063-40.98034 0-56.569404l-113.138808-113.138808c-15.707163-15.707162-40.980341-15.707162-56.569404 0l-28.343752-28.343751c-.708594-.590495-1.299088-1.299089-2.007682-1.889584 82.551176-109.832037 73.811853-265.72267-26.21797-365.752493-54.916019-54.916018-126.483991-82.314978-198.051964-82.314978zm-5.432552 82.07878c110.776829 0 200.059646 89.282818 200.059646 200.059646 0 110.776829-89.282817 199.941547-200.059646 199.941547s-199.941547-89.164718-199.941547-199.941547c0-110.776828 89.164718-200.059646 199.941547-200.059646zm0 0" fill="none" stroke="#212121" stroke-linecap="round" stroke-linejoin="round" stroke-width="11.338583" transform="scale(.0330761)"/></svg>

<?xml version="1.0" encoding="UTF-8"?>
<svg xmlns="http://www.w3.org/2000/svg" xmlns:xlink="http://www.w3.org/1999/xlink" width="64pt" height="64pt" viewBox="0 0 64 64" version="1.1">
<defs>
<linearGradient id="linear0" gradientUnits="userSpaceOnUse" x1="254" y1="233.5" x2="254" y2="254.666672" gradientTransform="matrix(0.125012,0,0,0.125012,-0.00000763012,26.87757)">
<stop offset="0" style="stop-color:rgb(0%,0%,0%);stop-opacity:0.27451;"/>
<stop offset="1" style="stop-color:rgb(0%,0%,0%);stop-opacity:0;"/>
</linearGradient>
<radialGradient id="radial0" gradientUnits="userSpaceOnUse" cx="450.908936" cy="189.579361" fx="450.908936" fy="189.579361" r="21.166656" gradientTransform="matrix(0.000000348341,-0.156265,-0.281277,-0.000000203077,100.292171,127.190665)">
<stop offset="0" style="stop-color:rgb(0%,0%,0%);stop-opacity:0.313726;"/>
<stop offset="0.222222" style="stop-color:rgb(0%,0%,0%);stop-opacity:0.27451;"/>
<stop offset="1" style="stop-color:rgb(0%,0%,0%);stop-opacity:0;"/>
</radialGradient>
<radialGradient id="radial1" gradientUnits="userSpaceOnUse" cx="450.908936" cy="189.579361" fx="450.908936" fy="189.579361" r="21.166656" gradientTransform="matrix(-0.000000348341,0.156265,0.281277,0.000000203077,-36.786098,-15.054961)">
<stop offset="0" style="stop-color:rgb(0%,0%,0%);stop-opacity:0.313726;"/>
<stop offset="0.222222" style="stop-color:rgb(0%,0%,0%);stop-opacity:0.27451;"/>
<stop offset="1" style="stop-color:rgb(0%,0%,0%);stop-opacity:0;"/>
</radialGradient>
<radialGradient id="radial2" gradientUnits="userSpaceOnUse" cx="450.908936" cy="189.579361" fx="450.908936" fy="189.579361" r="21.166656" gradientTransform="matrix(-0.000000348341,-0.156265,0.281277,-0.000000203077,-36.786098,127.190665)">
<stop offset="0" style="stop-color:rgb(0%,0%,0%);stop-opacity:0.313726;"/>
<stop offset="0.222222" style="stop-color:rgb(0%,0%,0%);stop-opacity:0.27451;"/>
<stop offset="1" style="stop-color:rgb(0%,0%,0%);stop-opacity:0;"/>
</radialGradient>
<radialGradient id="radial3" gradientUnits="userSpaceOnUse" cx="450.908936" cy="189.579361" fx="450.908936" fy="189.579361" r="21.166656" gradientTransform="matrix(0.000000348341,0.156265,-0.281277,0.000000203077,100.292167,-15.054959)">
<stop offset="0" style="stop-color:rgb(0%,0%,0%);stop-opacity:0.313726;"/>
<stop offset="0.222222" style="stop-color:rgb(0%,0%,0%);stop-opacity:0.27451;"/>
<stop offset="1" style="stop-color:rgb(0%,0%,0%);stop-opacity:0;"/>
</radialGradient>
<linearGradient id="linear1" gradientUnits="userSpaceOnUse" x1="306.916656" y1="-25.791676" x2="305.954559" y2="-141.414581" gradientTransform="matrix(0.150699,0,0,0.434824,-11.708026,67.282696)">
<stop offset="0" style="stop-color:rgb(36.078432%,41.960785%,75.294119%);stop-opacity:1;"/>
<stop offset="1" style="stop-color:rgb(39.215687%,70.980394%,96.470588%);stop-opacity:1;"/>
</linearGradient>
<linearGradient id="linear2" gradientUnits="userSpaceOnUse" x1="165.484848" y1="-25.791672" x2="165.484848" y2="-141.414581" gradientTransform="matrix(4.556143,0,0,13.146184,-353.972656,2034.180176)">
<stop offset="0" style="stop-color:rgb(25.882354%,25.882354%,25.882354%);stop-opacity:1;"/>
<stop offset="1" style="stop-color:rgb(38.039216%,38.039216%,38.039216%);stop-opacity:1;"/>
</linearGradient>
</defs>
<g id="surface1">
<path style=" stroke:none;fill-rule:nonzero;fill:url(#linear0);" d="M 15.875 56.066406 L 47.628906 56.066406 L 47.628906 58.714844 L 15.875 58.714844 Z M 15.875 56.066406 "/>
<path style=" stroke:none;fill-rule:nonzero;fill:url(#radial0);" d="M 47.628906 56.066406 L 52.921875 56.066406 L 52.921875 53.421875 L 47.628906 53.421875 Z M 47.628906 56.066406 "/>
<path style=" stroke:none;fill-rule:nonzero;fill:url(#radial1);" d="M 15.875 56.066406 L 10.585938 56.066406 L 10.585938 58.714844 L 15.875 58.714844 Z M 15.875 56.066406 "/>
<path style=" stroke:none;fill-rule:nonzero;fill:url(#radial2);" d="M 15.875 56.066406 L 10.585938 56.066406 L 10.585938 53.421875 L 15.875 53.421875 Z M 15.875 56.066406 "/>
<path style=" stroke:none;fill-rule:nonzero;fill:url(#radial3);" d="M 47.628906 56.066406 L 52.921875 56.066406 L 52.921875 58.714844 L 47.628906 58.714844 Z M 47.628906 56.066406 "/>
<path style=" stroke:none;fill-rule:nonzero;fill:url(#linear1);" d="M 13.230469 5.792969 L 50.277344 5.792969 C 51.738281 5.792969 52.921875 6.976562 52.921875 8.4375 L 52.921875 53.421875 C 52.921875 54.882812 51.738281 56.066406 50.277344 56.066406 L 13.230469 56.066406 C 11.769531 56.066406 10.585938 54.882812 10.585938 53.421875 L 10.585938 8.4375 C 10.585938 6.976562 11.769531 5.792969 13.230469 5.792969 Z M 13.230469 5.792969 "/>
<path style="fill-rule:nonzero;fill:url(#linear2);stroke-width:11.338583;stroke-linecap:round;stroke-linejoin:miter;stroke:rgb(12.941177%,12.941177%,12.941177%);stroke-opacity:1;stroke-miterlimit:4;" d="M 400.001193 175.140764 C 355.714081 175.140764 320.048194 210.806652 320.048194 255.093763 L 320.048194 1615.121439 C 320.048194 1659.408551 355.714081 1695.074438 400.001193 1695.074438 L 519.989741 1695.074438 L 519.989741 175.140764 Z M 400.001193 175.140764 " transform="matrix(0.0330761,0,0,0.0330761,0,0)"/>
<path style=" stroke:none;fill-rule:nonzero;fill:rgb(0%,0%,0%);fill-opacity:0.196078;" d="M 13.230469 56.066406 C 11.765625 56.066406 10.585938 54.886719 10.585938 53.421875 L 10.585938 53.089844 C 10.585938 54.558594 11.765625 55.738281 13.230469 55.738281 L 50.277344 55.738281 C 51.742188 55.738281 52.921875 54.558594 52.921875 53.089844 L 52.921875 53.421875 C 52.921875 54.886719 51.742188 56.066406 50.277344 56.066406 Z M 13.230469 56.066406 "/>
<path style=" stroke:none;fill-rule:nonzero;fill:rgb(90.196079%,90.196079%,90.196079%);fill-opacity:0.937239;" d="M 13.230469 5.792969 C 11.765625 5.792969 10.585938 6.972656 10.585938 8.4375 L 10.585938 8.769531 C 10.585938 7.304688 11.765625 6.121094 13.230469 6.121094 L 50.277344 6.121094 C 51.742188 6.121094 52.921875 7.304688 52.921875 8.769531 L 52.921875 8.4375 C 52.921875 6.972656 51.742188 5.792969 50.277344 5.792969 Z M 13.230469 5.792969 "/>
<path style=" stroke:none;fill-rule:nonzero;fill:rgb(12.941177%,12.941177%,12.941177%);fill-opacity:1;" d="M 13.230469 5.605469 C 11.664062 5.605469 10.398438 6.871094 10.398438 8.4375 L 10.398438 53.421875 C 10.398438 54.988281 11.664062 56.253906 13.230469 56.253906 L 50.277344 56.253906 C 51.84375 56.253906 53.109375 54.988281 53.109375 53.421875 L 53.109375 8.4375 C 53.109375 6.871094 51.84375 5.605469 50.277344 5.605469 Z M 13.230469 5.980469 L 50.277344 5.980469 C 51.640625 5.980469 52.734375 7.074219 52.734375 8.4375 L 52.734375 53.421875 C 52.734375 54.789062 51.640625 55.878906 50.277344 55.878906 L 13.230469 55.878906 C 11.863281 55.878906 10.773438 54.789062 10.773438 53.421875 L 10.773438 8.4375 C 10.773438 7.074219 11.863281 5.980469 13.230469 5.980469 Z M 13.230469 5.980469 "/>
<path style=" stroke:none;fill-rule:nonzero;fill:rgb(87.843138%,87.843138%,87.843138%);fill-opacity:1;" d="M 32.59375 17.628906 C 30.226562 17.628906 27.859375 18.535156 26.046875 20.351562 C 22.417969 23.980469 22.417969 29.820312 26.046875 33.449219 C 29.355469 36.757812 34.511719 37.046875 38.144531 34.316406 C 38.164062 34.339844 38.183594 34.363281 38.207031 34.382812 L 39.144531 35.320312 C 38.625 35.835938 38.625 36.671875 39.144531 37.191406 L 42.886719 40.933594 C 43.402344 41.449219 44.238281 41.449219 44.757812 40.933594 L 46.628906 39.0625 C 47.144531 38.542969 47.144531 37.707031 46.628906 37.191406 L 42.886719 33.449219 C 42.367188 32.929688 41.53125 32.929688 41.015625 33.449219 L 40.078125 32.511719 C 40.054688 32.492188 40.035156 32.46875 40.011719 32.449219 C 42.742188 28.816406 42.453125 23.660156 39.144531 20.351562 C 37.328125 18.535156 34.960938 17.628906 32.59375 17.628906 Z M 32.414062 20.34375 C 36.078125 20.34375 39.03125 23.296875 39.03125 26.960938 C 39.03125 30.625 36.078125 33.574219 32.414062 33.574219 C 28.75 33.574219 25.800781 30.625 25.800781 26.960938 C 25.800781 23.296875 28.75 20.34375 32.414062 20.34375 Z M 32.414062 20.34375 "/>
<path style=" stroke:none;fill-rule:nonzero;fill:rgb(100%,100%,100%);fill-opacity:0.588235;" d="M 32.59375 17.628906 C 30.226562 17.628906 27.859375 18.535156 26.046875 20.351562 C 24.117188 22.277344 23.214844 24.832031 23.335938 27.347656 C 23.441406 25.132812 24.347656 22.945312 26.046875 21.246094 C 27.859375 19.433594 30.226562 18.527344 32.59375 18.527344 C 34.960938 18.527344 37.328125 19.433594 39.144531 21.246094 C 40.84375 22.945312 41.746094 25.128906 41.851562 27.347656 C 41.972656 24.832031 41.070312 22.277344 39.144531 20.351562 C 37.328125 18.535156 34.960938 17.628906 32.59375 17.628906 Z M 25.816406 27.410156 C 25.804688 27.558594 25.800781 27.707031 25.800781 27.859375 C 25.800781 31.523438 28.75 34.472656 32.414062 34.472656 C 36.078125 34.472656 39.03125 31.523438 39.03125 27.859375 C 39.03125 27.707031 39.023438 27.558594 39.015625 27.410156 C 38.785156 30.863281 35.929688 33.574219 32.414062 33.574219 C 28.902344 33.574219 26.042969 30.863281 25.816406 27.410156 Z M 40.382812 32.816406 C 40.265625 32.996094 40.140625 33.171875 40.011719 33.347656 C 40.035156 33.367188 40.054688 33.386719 40.078125 33.410156 L 41.015625 34.34375 C 41.53125 33.828125 42.367188 33.828125 42.886719 34.34375 L 46.628906 38.085938 C 46.769531 38.230469 46.875 38.398438 46.9375 38.574219 C 47.105469 38.105469 47.003906 37.566406 46.628906 37.191406 L 42.886719 33.449219 C 42.367188 32.929688 41.53125 32.929688 41.015625 33.449219 Z M 38.808594 35.882812 C 38.730469 36.148438 38.738281 36.4375 38.832031 36.703125 C 38.898438 36.527344 39 36.359375 39.144531 36.214844 Z M 38.808594 35.882812 "/>
<path style=" stroke:none;fill-rule:nonzero;fill:rgb(0%,0%,0%);fill-opacity:0.235294;" d="M 32.414062 20.507812 C 29 20.507812 26.207031 23.070312 25.839844 26.378906 C 25.824219 26.242188 25.816406 26.101562 25.808594 25.960938 C 25.800781 26.070312 25.800781 26.183594 25.800781 26.296875 C 25.800781 26.550781 25.8125 26.796875 25.839844 27.042969 C 26.207031 23.730469 29 21.171875 32.414062 21.171875 C 35.828125 21.171875 38.621094 23.730469 38.988281 27.042969 C 39.015625 26.796875 39.03125 26.550781 39.03125 26.296875 C 39.03125 26.183594 39.027344 26.070312 39.019531 25.960938 C 39.015625 26.101562 39.003906 26.242188 38.988281 26.378906 C 38.621094 23.070312 35.828125 20.507812 32.414062 20.507812 Z M 23.332031 27.394531 C 23.242188 29.871094 24.148438 32.375 26.046875 34.273438 C 29.355469 37.585938 34.511719 37.871094 38.144531 35.140625 C 38.164062 35.164062 38.183594 35.1875 38.207031 35.207031 L 38.765625 35.769531 C 38.714844 35.375 38.839844 34.960938 39.144531 34.65625 L 38.871094 34.386719 C 38.769531 34.613281 38.734375 34.863281 38.765625 35.105469 L 38.207031 34.546875 C 38.183594 34.523438 38.164062 34.503906 38.144531 34.480469 C 34.511719 37.210938 29.355469 36.921875 26.046875 33.613281 C 24.316406 31.882812 23.414062 29.648438 23.332031 27.394531 Z M 41.855469 27.394531 C 41.804688 28.890625 41.386719 30.378906 40.605469 31.714844 L 40.289062 31.398438 C 40.199219 31.527344 40.105469 31.65625 40.011719 31.785156 C 40.035156 31.804688 40.054688 31.828125 40.078125 31.847656 L 40.605469 32.378906 C 41.5 30.84375 41.917969 29.113281 41.855469 27.394531 Z M 38.796875 36.75 C 38.683594 37.1875 38.800781 37.671875 39.144531 38.015625 L 42.886719 41.757812 C 43.402344 42.277344 44.238281 42.277344 44.757812 41.757812 L 46.628906 39.886719 C 46.972656 39.542969 47.085938 39.058594 46.972656 38.621094 C 46.917969 38.839844 46.800781 39.050781 46.628906 39.226562 L 44.757812 41.097656 C 44.238281 41.613281 43.402344 41.613281 42.886719 41.097656 L 39.144531 37.355469 C 38.96875 37.179688 38.855469 36.96875 38.796875 36.75 Z M 38.796875 36.75 "/>
<path style="fill:none;stroke-width:11.338583;stroke-linecap:round;stroke-linejoin:round;stroke:rgb(12.941177%,12.941177%,12.941177%);stroke-opacity:1;stroke-miterlimit:4;" d="M 985.41776 532.980627 C 913.849788 532.980627 842.281815 560.379587 787.483896 615.295605 C 677.769958 725.009543 677.769958 901.567495 787.483896 1011.281433 C 887.513719 1111.311256 1043.404352 1120.05058 1153.236389 1037.499403 C 1153.826884 1038.207997 1154.417378 1038.916591 1155.125972 1039.507086 L 1183.469724 1067.850837 C 1167.762561 1083.439901 1167.762561 1108.713079 1183.469724 1124.420241 L 1296.608532 1237.559049 C 1312.197595 1253.148113 1337.470773 1253.148113 1353.177936 1237.559049 L 1409.74734 1180.989645 C 1425.336403 1165.282483 1425.336403 1140.009305 1409.74734 1124.420241 L 1296.608532 1011.281433 C 1280.901369 995.574271 1255.628191 995.574271 1240.039128 1011.281433 L 1211.695376 982.937682 C 1210.986782 982.347187 1210.396288 981.638593 1209.687694 981.048098 C 1292.23887 871.216061 1283.499547 715.325428 1183.469724 615.295605 C 1128.553705 560.379587 1056.985733 532.980627 985.41776 532.980627 Z M 979.985208 615.059407 C 1090.762037 615.059407 1180.044854 704.342225 1180.044854 815.119053 C 1180.044854 925.895882 1090.762037 1015.0606 979.985208 1015.0606 C 869.208379 1015.0606 780.043661 925.895882 780.043661 815.119053 C 780.043661 704.342225 869.208379 615.059407 979.985208 615.059407 Z M 979.985208 615.059407 " transform="matrix(0.0330761,0,0,0.0330761,0,0)"/>
</g>
</svg>
